X: 10052
M: C
L: 1/8
K: Bb
f |\
((3bag) ((3agf) {a}g>fd>g | f<d{d}c>B G2-G>f | b>fg>e f<db>g | f<dc>d B2-Bf |
((3bag) ((3agf) g>fd>g | f<d{d}c>B G2-G>f | (FB/)F/ (EB/)E/ (DB/)D/ C>g | f<dc>d B2-B ||


